src/assets/img/icons/dusk/svg/details-popup.svg

<svg height="128" viewBox="0 0 64 64" width="128" xmlns="http://www.w3.org/2000/svg"><path d="m5 15h53v38h-53z" fill="#85cbf8"/><path d="m58 53h-18l-8 8-8-8h-18a1 1 0 0 1 -1-1 4 4 0 0 1 4-4h47a3 3 0 0 1 3 3v1a1 1 0 0 1 -1 1z" fill="#6fc6f0"/><path d="m5 5h54v10h-54z" fill="#c2cde7"/><g fill="#8d6c9f"><path d="m57 4h-50a3 3 0 0 0 -3 3v44a3 3 0 0 0 3 3h17.09a1 1 0 0 1 .75.34l5.64 6.45a2 2 0 0 0 1.5.68 2 2 0 0 0 1.51-.7l5.51-6.42a1 1 0 0 1 .76-.35h17.24a3 3 0 0 0 3-3v-44a3 3 0 0 0 -3-3zm-51 3a1 1 0 0 1 1-1h50a1 1 0 0 1 1 1v7h-52zm51 45h-17.21a3 3 0 0 0 -2.27 1l-5.52 6.47-5.65-6.47a3 3 0 0 0 -2.26-1h-17.09a1 1 0 0 1 -1-1v-35h52v35a1 1 0 0 1 -1 1z"/><path d="m19 8a1 1 0 0 0 -1 1v2a1 1 0 0 0 2 0v-2a1 1 0 0 0 -1-1z"/><path d="m14 8a1 1 0 0 0 -1 1v2a1 1 0 0 0 2 0v-2a1 1 0 0 0 -1-1z"/><path d="m9 8a1 1 0 0 0 -1 1v2a1 1 0 0 0 2 0v-2a1 1 0 0 0 -1-1z"/><path d="m24 8a1 1 0 0 0 -1 1v2a1 1 0 0 0 2 0v-2a1 1 0 0 0 -1-1z"/><path d="m29 8a1 1 0 0 0 -1 1v2a1 1 0 0 0 2 0v-2a1 1 0 0 0 -1-1z"/><path d="m34 8a1 1 0 0 0 -1 1v2a1 1 0 0 0 2 0v-2a1 1 0 0 0 -1-1z"/><path d="m39 8a1 1 0 0 0 -1 1v2a1 1 0 0 0 2 0v-2a1 1 0 0 0 -1-1z"/><path d="m44 8a1 1 0 0 0 -1 1v2a1 1 0 0 0 2 0v-2a1 1 0 0 0 -1-1z"/><path d="m49 8a1 1 0 0 0 -1 1v2a1 1 0 0 0 2 0v-2a1 1 0 0 0 -1-1z"/><path d="m54 8a1 1 0 0 0 -1 1v2a1 1 0 0 0 2 0v-2a1 1 0 0 0 -1-1z"/></g><path d="m23 26h4a1 1 0 0 0 0-2h-4a1 1 0 0 0 0 2z" fill="#f5f5f5"/><path d="m48 24h-17a1 1 0 0 0 0 2h17a1 1 0 0 0 0-2z" fill="#f5f5f5"/><path d="m48 32h-25a1 1 0 0 0 0 2h25a1 1 0 0 0 0-2z" fill="#f5f5f5"/><path d="m38 40h-15a1 1 0 0 0 0 2h15a1 1 0 0 0 0-2z" fill="#f5f5f5"/><circle cx="16" cy="25" fill="#f5f5f5" r="2"/><circle cx="16" cy="33" fill="#f5f5f5" r="2"/><circle cx="16" cy="41" fill="#f5f5f5" r="2"/></svg>

<svg xmlns="http://www.w3.org/2000/svg" id="Layer_1" data-name="Layer 1" viewBox="0 0 64 64" width="128" height="128"><title>Icons8 RSL Colored Part 11</title><rect x="5" y="15" width="53" height="38" style="fill:#85cbf8;"/><path d="M58,53H40l-8,8-8-8H6a1,1,0,0,1-1-1H5a4,4,0,0,1,4-4H56a3,3,0,0,1,3,3v1A1,1,0,0,1,58,53Z" style="fill:#6fc6f0;"/><rect x="5" y="5" width="54" height="10" style="fill:#c2cde7;"/><path d="M57,4H7A3,3,0,0,0,4,7V51a3,3,0,0,0,3,3H24.09a1,1,0,0,1,.75.34l5.64,6.45a2,2,0,0,0,1.5.68h0a2,2,0,0,0,1.51-.7L39,54.35a1,1,0,0,1,.76-.35H57a3,3,0,0,0,3-3V7A3,3,0,0,0,57,4ZM6,7A1,1,0,0,1,7,6H57a1,1,0,0,1,1,1v7H6ZM57,52H39.79a3,3,0,0,0-2.27,1L32,59.47,26.35,53a3,3,0,0,0-2.26-1H7a1,1,0,0,1-1-1V16H58V51A1,1,0,0,1,57,52Z" style="fill:#8d6c9f;"/><path d="M19,8a1,1,0,0,0-1,1v2a1,1,0,0,0,2,0V9A1,1,0,0,0,19,8Z" style="fill:#8d6c9f;"/><path d="M14,8a1,1,0,0,0-1,1v2a1,1,0,0,0,2,0V9A1,1,0,0,0,14,8Z" style="fill:#8d6c9f;"/><path d="M9,8A1,1,0,0,0,8,9v2a1,1,0,0,0,2,0V9A1,1,0,0,0,9,8Z" style="fill:#8d6c9f;"/><path d="M24,8a1,1,0,0,0-1,1v2a1,1,0,0,0,2,0V9A1,1,0,0,0,24,8Z" style="fill:#8d6c9f;"/><path d="M29,8a1,1,0,0,0-1,1v2a1,1,0,0,0,2,0V9A1,1,0,0,0,29,8Z" style="fill:#8d6c9f;"/><path d="M34,8a1,1,0,0,0-1,1v2a1,1,0,0,0,2,0V9A1,1,0,0,0,34,8Z" style="fill:#8d6c9f;"/><path d="M39,8a1,1,0,0,0-1,1v2a1,1,0,0,0,2,0V9A1,1,0,0,0,39,8Z" style="fill:#8d6c9f;"/><path d="M44,8a1,1,0,0,0-1,1v2a1,1,0,0,0,2,0V9A1,1,0,0,0,44,8Z" style="fill:#8d6c9f;"/><path d="M49,8a1,1,0,0,0-1,1v2a1,1,0,0,0,2,0V9A1,1,0,0,0,49,8Z" style="fill:#8d6c9f;"/><path d="M54,8a1,1,0,0,0-1,1v2a1,1,0,0,0,2,0V9A1,1,0,0,0,54,8Z" style="fill:#8d6c9f;"/><path d="M23,26h4a1,1,0,0,0,0-2H23a1,1,0,0,0,0,2Z" style="fill:#f5f5f5;"/><path d="M48,24H31a1,1,0,0,0,0,2H48a1,1,0,0,0,0-2Z" style="fill:#f5f5f5;"/><path d="M48,32H23a1,1,0,0,0,0,2H48a1,1,0,0,0,0-2Z" style="fill:#f5f5f5;"/><path d="M38,40H23a1,1,0,0,0,0,2H38a1,1,0,0,0,0-2Z" style="fill:#f5f5f5;"/><circle cx="16" cy="25" r="2" style="fill:#f5f5f5;"/><circle cx="16" cy="33" r="2" style="fill:#f5f5f5;"/><circle cx="16" cy="41" r="2" style="fill:#f5f5f5;"/></svg>
